X:1
T:Title
%%score { 1 | ( 2 3 ) }
L:1/8
M:3/4
K:Eb
V:1 treble nm="Grand Piano"
V:2 bass 
V:3 bass 
V:1
 z2 z2[Q:1/4=90] E2 | EG G2 G2 | G[GB] [GB]2 E2 | EA A2 A2 | G4 G2 | [EG][DF] [DF]2 [FA]2 | %6
 [FA]G G2 G2 | F3 F G=A |[M:2/4] [DB]4 |[M:1/4] [DB]2 |[M:3/4] [DA]>[DA] .[DA]2 [DA]2 | %11
 G>G .G2 E2 | [CE][CE] .[CE]2 [CE]2 | E2 D2 F2 |[M:2/4] E4 |] %15
V:2
 z2 z2 [E,G,B,]2 | [E,G,B,][E,B,E] [E,B,E]2 [E,B,E]2 | [E,B,E][E,B,] [E,B,]2 [E,G,B,]2 | %3
 [E,A,C][E,CE] [E,CE]2 [E,CE]2 | [E,B,E]4 [E,B,E]2 | [B,,B,][B,,B,] [B,,B,]2 [B,,B,]2 | %6
 [E,B,][E,B,E] [E,B,E]2 [E,B,E]2 | [F,B,D]3 [F,B,D] [F,=A,E][F,CE] |[M:2/4] [B,,B,]4 | %9
[M:1/4] [B,,B,]2 |[M:3/4] [B,,B,]>[B,,B,] .[B,,B,]2 [B,,B,]2 | %11
 [E,B,E]>[E,B,E] .[E,B,E]2 [E,G,B,]2 | [A,,A,][A,,A,] .[A,,A,]2 [A,,A,]2 | G,2 z2 z2 | %14
[M:2/4] [E,G,B,]4 |] %15
V:3
 x6 | x6 | x6 | x6 | x6 | x6 | x6 | x6 |[M:2/4] x4 |[M:1/4] x2 |[M:3/4] x6 | x6 | x6 | %13
 [B,,B,]2- [B,,F,B,]2 [B,,A,B,]2 |[M:2/4] x4 |] %15

